X:3
T:Indian Point
R:Jig
C:Rick Mohr
F:http://home.attbi.com/~rick.mohr/
L:1/8
M:6/8
K:Em
"Em"B,EF G2A|BAG FED|"C"CEF G2A|BAG BAG|
"D"FED A,2D|FEF AGF|1"Em"EFG BAG|"Bm"F3 FED:|2"Em"GFE "Bm"FED|"Em"E3 E2|]
|:A|"Em"Bef gfe|"C"cef gfe|"D"dfg agf|"Em"gfe "Bm"fed|
"Em"Bef gfe|"C"ceg "Am"a2a|"Bm"bag fgf|"Em"e3 "D"e2:|

